src/assets/filled/Calendar.svg

<svg width="24" height="24" viewBox="0 0 24 24"  xmlns="http://www.w3.org/2000/svg">
<path d="M16.75 3.56V2C16.75 1.59 16.41 1.25 16 1.25C15.59 1.25 15.25 1.59 15.25 2V3.5H8.74999V2C8.74999 1.59 8.40999 1.25 7.99999 1.25C7.58999 1.25 7.24999 1.59 7.24999 2V3.56C4.54999 3.81 3.23999 5.42 3.03999 7.81C3.01999 8.1 3.25999 8.34 3.53999 8.34H20.46C20.75 8.34 20.99 8.09 20.96 7.81C20.76 5.42 19.45 3.81 16.75 3.56Z" />
<path d="M20 9.83984H4C3.45 9.83984 3 10.2898 3 10.8398V16.9998C3 19.9998 4.5 21.9998 8 21.9998H16C19.5 21.9998 21 19.9998 21 16.9998V10.8398C21 10.2898 20.55 9.83984 20 9.83984ZM9.21 18.2098C9.16 18.2498 9.11 18.2998 9.06 18.3298C9 18.3698 8.94 18.3998 8.88 18.4198C8.82 18.4498 8.76 18.4698 8.7 18.4798C8.63 18.4898 8.57 18.4998 8.5 18.4998C8.37 18.4998 8.24 18.4698 8.12 18.4198C7.99 18.3698 7.89 18.2998 7.79 18.2098C7.61 18.0198 7.5 17.7598 7.5 17.4998C7.5 17.2398 7.61 16.9798 7.79 16.7898C7.89 16.6998 7.99 16.6298 8.12 16.5798C8.3 16.4998 8.5 16.4798 8.7 16.5198C8.76 16.5298 8.82 16.5498 8.88 16.5798C8.94 16.5998 9 16.6298 9.06 16.6698C9.11 16.7098 9.16 16.7498 9.21 16.7898C9.39 16.9798 9.5 17.2398 9.5 17.4998C9.5 17.7598 9.39 18.0198 9.21 18.2098ZM9.21 14.7098C9.02 14.8898 8.76 14.9998 8.5 14.9998C8.24 14.9998 7.98 14.8898 7.79 14.7098C7.61 14.5198 7.5 14.2598 7.5 13.9998C7.5 13.7398 7.61 13.4798 7.79 13.2898C8.07 13.0098 8.51 12.9198 8.88 13.0798C9.01 13.1298 9.12 13.1998 9.21 13.2898C9.39 13.4798 9.5 13.7398 9.5 13.9998C9.5 14.2598 9.39 14.5198 9.21 14.7098ZM12.71 18.2098C12.52 18.3898 12.26 18.4998 12 18.4998C11.74 18.4998 11.48 18.3898 11.29 18.2098C11.11 18.0198 11 17.7598 11 17.4998C11 17.2398 11.11 16.9798 11.29 16.7898C11.66 16.4198 12.34 16.4198 12.71 16.7898C12.89 16.9798 13 17.2398 13 17.4998C13 17.7598 12.89 18.0198 12.71 18.2098ZM12.71 14.7098C12.66 14.7498 12.61 14.7898 12.56 14.8298C12.5 14.8698 12.44 14.8998 12.38 14.9198C12.32 14.9498 12.26 14.9698 12.2 14.9798C12.13 14.9898 12.07 14.9998 12 14.9998C11.74 14.9998 11.48 14.8898 11.29 14.7098C11.11 14.5198 11 14.2598 11 13.9998C11 13.7398 11.11 13.4798 11.29 13.2898C11.38 13.1998 11.49 13.1298 11.62 13.0798C11.99 12.9198 12.43 13.0098 12.71 13.2898C12.89 13.4798 13 13.7398 13 13.9998C13 14.2598 12.89 14.5198 12.71 14.7098ZM16.21 18.2098C16.02 18.3898 15.76 18.4998 15.5 18.4998C15.24 18.4998 14.98 18.3898 14.79 18.2098C14.61 18.0198 14.5 17.7598 14.5 17.4998C14.5 17.2398 14.61 16.9798 14.79 16.7898C15.16 16.4198 15.84 16.4198 16.21 16.7898C16.39 16.9798 16.5 17.2398 16.5 17.4998C16.5 17.7598 16.39 18.0198 16.21 18.2098ZM16.21 14.7098C16.16 14.7498 16.11 14.7898 16.06 14.8298C16 14.8698 15.94 14.8998 15.88 14.9198C15.82 14.9498 15.76 14.9698 15.7 14.9798C15.63 14.9898 15.56 14.9998 15.5 14.9998C15.24 14.9998 14.98 14.8898 14.79 14.7098C14.61 14.5198 14.5 14.2598 14.5 13.9998C14.5 13.7398 14.61 13.4798 14.79 13.2898C14.89 13.1998 14.99 13.1298 15.12 13.0798C15.3 12.9998 15.5 12.9798 15.7 13.0198C15.76 13.0298 15.82 13.0498 15.88 13.0798C15.94 13.0998 16 13.1298 16.06 13.1698C16.11 13.2098 16.16 13.2498 16.21 13.2898C16.39 13.4798 16.5 13.7398 16.5 13.9998C16.5 14.2598 16.39 14.5198 16.21 14.7098Z" />
</svg>

<?xml version="1.0" encoding="UTF-8"?>
<svg width="24" height="24" viewBox="0 0 24 24" xmlns="http://www.w3.org/2000/svg">
 <path d="m16.75 3.56v-1.56c0-0.41-0.34-0.75-0.75-0.75s-0.75 0.34-0.75 0.75v1.5h-6.5v-1.5c0-0.41-0.34-0.75-0.75-0.75s-0.75 0.34-0.75 0.75v1.56c-2.7 0.25-4.01 1.86-4.21 4.25-0.02 0.29 0.22 0.53 0.5 0.53h16.92c0.29 0 0.53-0.25 0.5-0.53-0.2-2.39-1.51-4-4.21-4.25z"/>
 <path d="m20 9.8398h-16c-0.55 0-1 0.44996-1 0.99996v6.16c0 3 1.5 5 5 5h8c3.5 0 5-2 5-5v-6.16c0-0.55-0.45-0.99996-1-0.99996zm-10.79 8.37c-0.05 0.04-0.1 0.09-0.15 0.12-0.06 0.04-0.12 0.07-0.18 0.09-0.06 0.03-0.12 0.05-0.18 0.06-0.07 0.01-0.13 0.02-0.2 0.02-0.13 0-0.26-0.03-0.38-0.08-0.13-0.05-0.23-0.12-0.33-0.21-0.18-0.19-0.29-0.45-0.29-0.71s0.11-0.52 0.29-0.71c0.1-0.09 0.2-0.16 0.33-0.21 0.18-0.08 0.38-0.1 0.58-0.06 0.06 0.01 0.12 0.03 0.18 0.06 0.06 0.02 0.12 0.05 0.18 0.09l0.15 0.12c0.18 0.19 0.29 0.45 0.29 0.71s-0.11 0.52-0.29 0.71zm0-3.5c-0.19 0.18-0.45 0.29-0.71 0.29s-0.52-0.11-0.71-0.29c-0.18-0.19-0.29-0.45-0.29-0.71s0.11-0.52 0.29-0.71c0.28-0.28 0.72-0.37 1.09-0.21 0.13 0.05 0.24 0.12 0.33 0.21 0.18 0.19 0.29 0.45 0.29 0.71s-0.11 0.52-0.29 0.71zm3.5 3.5c-0.19 0.18-0.45 0.29-0.71 0.29s-0.52-0.11-0.71-0.29c-0.18-0.19-0.29-0.45-0.29-0.71s0.11-0.52 0.29-0.71c0.37-0.37 1.05-0.37 1.42 0 0.18 0.19 0.29 0.45 0.29 0.71s-0.11 0.52-0.29 0.71zm0-3.5-0.15 0.12c-0.06 0.04-0.12 0.07-0.18 0.09-0.06 0.03-0.12 0.05-0.18 0.06-0.07 0.01-0.13 0.02-0.2 0.02-0.26 0-0.52-0.11-0.71-0.29-0.18-0.19-0.29-0.45-0.29-0.71s0.11-0.52 0.29-0.71c0.09-0.09 0.2-0.16 0.33-0.21 0.37-0.16 0.81-0.07 1.09 0.21 0.18 0.19 0.29 0.45 0.29 0.71s-0.11 0.52-0.29 0.71zm3.5 3.5c-0.19 0.18-0.45 0.29-0.71 0.29s-0.52-0.11-0.71-0.29c-0.18-0.19-0.29-0.45-0.29-0.71s0.11-0.52 0.29-0.71c0.37-0.37 1.05-0.37 1.42 0 0.18 0.19 0.29 0.45 0.29 0.71s-0.11 0.52-0.29 0.71zm0-3.5-0.15 0.12c-0.06 0.04-0.12 0.07-0.18 0.09-0.06 0.03-0.12 0.05-0.18 0.06-0.07 0.01-0.14 0.02-0.2 0.02-0.26 0-0.52-0.11-0.71-0.29-0.18-0.19-0.29-0.45-0.29-0.71s0.11-0.52 0.29-0.71c0.1-0.09 0.2-0.16 0.33-0.21 0.18-0.08 0.38-0.1 0.58-0.06 0.06 0.01 0.12 0.03 0.18 0.06 0.06 0.02 0.12 0.05 0.18 0.09l0.15 0.12c0.18 0.19 0.29 0.45 0.29 0.71s-0.11 0.52-0.29 0.71z"/>
</svg>
